X:8
T:An Dro
R:An Dro
S:D. Shepherd
M:4/4
L:1/4
K:C
c c B>A |B c A>c|c c B>A |B c A2 :|\
|:A A c c |d c/2d/2 e>d|
c B/2c/2 A>c|BGE2 |\
A A c c |d c/2d/2 e>d|c B/2c/2 A>c|B G A2  :|
